48x48/apps/xonotic.svg

<svg viewBox="0 0 48 48"><defs><linearGradient id="linearGradient3764" x1="1" x2="47" gradientUnits="userSpaceOnUse" gradientTransform="matrix(0,-1,1,0,-1.5e-6,47.999998)"><stop stop-color="#444" stop-opacity="1"/><stop offset="1" stop-color="#4e4e4e" stop-opacity="1"/></linearGradient><clipPath id="clipPath-945623168"><g transform="translate(0,-1004.3622)"><path d="m -24 13 c 0 1.105 -0.672 2 -1.5 2 -0.828 0 -1.5 -0.895 -1.5 -2 0 -1.105 0.672 -2 1.5 -2 0.828 0 1.5 0.895 1.5 2 z" transform="matrix(15.333333,0,0,11.5,414.99999,878.8622)" fill="#1890d0"/></g></clipPath><clipPath id="clipPath-953422258"><g transform="translate(0,-1004.3622)"><path d="m -24 13 c 0 1.105 -0.672 2 -1.5 2 -0.828 0 -1.5 -0.895 -1.5 -2 0 -1.105 0.672 -2 1.5 -2 0.828 0 1.5 0.895 1.5 2 z" transform="matrix(15.333333,0,0,11.5,414.99999,878.8622)" fill="#1890d0"/></g></clipPath></defs><g><path d="m 36.31 5 c 5.859 4.062 9.688 10.831 9.688 18.5 c 0 12.426 -10.07 22.5 -22.5 22.5 c -7.669 0 -14.438 -3.828 -18.5 -9.688 c 1.037 1.822 2.306 3.499 3.781 4.969 c 4.085 3.712 9.514 5.969 15.469 5.969 c 12.703 0 23 -10.298 23 -23 c 0 -5.954 -2.256 -11.384 -5.969 -15.469 c -1.469 -1.475 -3.147 -2.744 -4.969 -3.781 z m 4.969 3.781 c 3.854 4.113 6.219 9.637 6.219 15.719 c 0 12.703 -10.297 23 -23 23 c -6.081 0 -11.606 -2.364 -15.719 -6.219 c 4.16 4.144 9.883 6.719 16.219 6.719 c 12.703 0 23 -10.298 23 -23 c 0 -6.335 -2.575 -12.06 -6.719 -16.219 z" opacity="0.05"/><path d="m 41.28 8.781 c 3.712 4.085 5.969 9.514 5.969 15.469 c 0 12.703 -10.297 23 -23 23 c -5.954 0 -11.384 -2.256 -15.469 -5.969 c 4.113 3.854 9.637 6.219 15.719 6.219 c 12.703 0 23 -10.298 23 -23 c 0 -6.081 -2.364 -11.606 -6.219 -15.719 z" opacity="0.1"/><path d="m 31.25 2.375 c 8.615 3.154 14.75 11.417 14.75 21.13 c 0 12.426 -10.07 22.5 -22.5 22.5 c -9.708 0 -17.971 -6.135 -21.12 -14.75 a 23 23 0 0 0 44.875 -7 a 23 23 0 0 0 -16 -21.875 z" opacity="0.2"/></g><g><path d="m 24 1 c 12.703 0 23 10.297 23 23 c 0 12.703 -10.297 23 -23 23 -12.703 0 -23 -10.297 -23 -23 0 -12.703 10.297 -23 23 -23 z" fill="url(#linearGradient3764)" fill-opacity="1"/></g><g/><g><g clip-path="url(#clipPath-945623168)"><g transform="translate(1,1)"><g opacity="0.1"><!-- color: #4e4e4e --><g><path d="m 27.656 16.16 c -4.602 1.227 -8.141 5.34 -12.219 8.188 c 1.738 -0.711 3.922 -1.828 4.813 -1.906 l -2.875 3.188 l 2.219 -0.969 c -0.992 2.949 -2.168 5.703 -5.03 6.781 l 1.5 2.313 c 0 0 7.547 4.75 7.75 4.75 c 0.203 0 2.316 -1.875 2.316 -1.875 l 7.75 -5.688 c -3.859 0.105 -7.289 -0.348 -7.656 -4.781 c -0.094 -0.531 0.043 -4.219 5.344 -5.906 c -0.535 -0.367 -2.328 -0.121 -3.594 -0.125 c -0.055 -0.5 0.254 -2.664 4.344 -2.906 c -1.027 -1.055 -2.32 -1.137 -4.156 -0.563 c -0.195 -0.188 -0.309 -0.168 -0.5 -0.5 m -1.063 1.594 c 0.262 0.113 0.297 0.285 0.344 0.469 c -0.457 0.094 -1.102 0.313 -1.281 0.063 c -0.082 -0.086 0.477 -0.402 0.941 -0.523 m 0 0" fill="#000" stroke="none" fill-rule="nonzero" fill-opacity="1"/><path d="m 17.688 10.406 c -5.129 2.379 -8.688 7.566 -8.688 13.594 c 0 8.281 6.715 14.996 15 14.996 c 8.281 0 14.996 -6.715 14.996 -14.996 c 0 -5.953 -3.473 -11.09 -8.5 -13.5 l -0.156 0.156 c 3.969 2.227 6.66 6.465 6.66 11.34 c 0 6.547 -4.832 11.938 -11.125 12.844 l -1.875 3.16 l -1.875 -3.16 c -6.293 -0.906 -11.125 -6.297 -11.125 -12.844 c 0 -4.926 2.746 -9.199 6.781 -11.406 c -0.027 -0.059 -0.066 -0.125 -0.094 -0.188 m 0 0.004" fill="#000" stroke="none" fill-rule="nonzero" fill-opacity="1"/></g></g></g></g></g><g><g clip-path="url(#clipPath-953422258)"><!-- color: #4e4e4e --><g><path d="m 27.656 16.16 c -4.602 1.227 -8.141 5.34 -12.219 8.188 c 1.738 -0.711 3.922 -1.828 4.813 -1.906 l -2.875 3.188 l 2.219 -0.969 c -0.992 2.949 -2.168 5.703 -5.03 6.781 l 1.5 2.313 c 0 0 7.547 4.75 7.75 4.75 c 0.203 0 2.316 -1.875 2.316 -1.875 l 7.75 -5.688 c -3.859 0.105 -7.289 -0.348 -7.656 -4.781 c -0.094 -0.531 0.043 -4.219 5.344 -5.906 c -0.535 -0.367 -2.328 -0.121 -3.594 -0.125 c -0.055 -0.5 0.254 -2.664 4.344 -2.906 c -1.027 -1.055 -2.32 -1.137 -4.156 -0.563 c -0.195 -0.188 -0.309 -0.168 -0.5 -0.5 m -1.063 1.594 c 0.262 0.113 0.297 0.285 0.344 0.469 c -0.457 0.094 -1.102 0.313 -1.281 0.063 c -0.082 -0.086 0.477 -0.402 0.941 -0.523 m 0 0" fill="#fab268" stroke="none" fill-rule="nonzero" fill-opacity="1"/><path d="m 17.688 10.406 c -5.129 2.379 -8.688 7.566 -8.688 13.594 c 0 8.281 6.715 14.996 15 14.996 c 8.281 0 14.996 -6.715 14.996 -14.996 c 0 -5.953 -3.473 -11.09 -8.5 -13.5 l -0.156 0.156 c 3.969 2.227 6.66 6.465 6.66 11.34 c 0 6.547 -4.832 11.938 -11.125 12.844 l -1.875 3.16 l -1.875 -3.16 c -6.293 -0.906 -11.125 -6.297 -11.125 -12.844 c 0 -4.926 2.746 -9.199 6.781 -11.406 c -0.027 -0.059 -0.066 -0.125 -0.094 -0.188 m 0 0.004" fill="#7799b9" stroke="none" fill-rule="nonzero" fill-opacity="1"/></g></g></g><g><path d="m 40.03 7.531 c 3.712 4.084 5.969 9.514 5.969 15.469 0 12.703 -10.297 23 -23 23 c -5.954 0 -11.384 -2.256 -15.469 -5.969 4.178 4.291 10.01 6.969 16.469 6.969 c 12.703 0 23 -10.298 23 -23 0 -6.462 -2.677 -12.291 -6.969 -16.469 z" opacity="0.1"/></g></svg>

<?xml version="1.0" encoding="UTF-8" standalone="no"?>
<svg
   xmlns:dc="http://purl.org/dc/elements/1.1/"
   xmlns:cc="http://creativecommons.org/ns#"
   xmlns:rdf="http://www.w3.org/1999/02/22-rdf-syntax-ns#"
   xmlns:svg="http://www.w3.org/2000/svg"
   xmlns="http://www.w3.org/2000/svg"
   xmlns:sodipodi="http://sodipodi.sourceforge.net/DTD/sodipodi-0.dtd"
   xmlns:inkscape="http://www.inkscape.org/namespaces/inkscape"
   viewBox="0 0 48 48"
   id="svg2"
   version="1.1"
   inkscape:version="0.48.4 r9939"
   width="100%"
   height="100%"
   sodipodi:docname="xonotic.svg">
  <metadata
     id="metadata65">
    <rdf:RDF>
      <cc:Work
         rdf:about="">
        <dc:format>image/svg+xml</dc:format>
        <dc:type
           rdf:resource="http://purl.org/dc/dcmitype/StillImage" />
      </cc:Work>
    </rdf:RDF>
  </metadata>
  <sodipodi:namedview
     pagecolor="#ffffff"
     bordercolor="#666666"
     borderopacity="1"
     objecttolerance="10"
     gridtolerance="10"
     guidetolerance="10"
     inkscape:pageopacity="0"
     inkscape:pageshadow="2"
     inkscape:window-width="1375"
     inkscape:window-height="876"
     id="namedview63"
     showgrid="false"
     inkscape:zoom="4.9166667"
     inkscape:cx="-12"
     inkscape:cy="24"
     inkscape:window-x="65"
     inkscape:window-y="24"
     inkscape:window-maximized="1"
     inkscape:current-layer="svg2" />
  <defs
     id="defs4">
    <linearGradient
       id="linearGradient3764"
       x1="1"
       x2="47"
       gradientUnits="userSpaceOnUse"
       gradientTransform="matrix(0,-1,1,0,-1.5e-6,47.999998)">
      <stop
         stop-color="#444"
         stop-opacity="1"
         id="stop7" />
      <stop
         offset="1"
         stop-color="#4e4e4e"
         stop-opacity="1"
         id="stop9" />
    </linearGradient>
    <clipPath
       id="clipPath-945623168">
      <g
         transform="translate(0,-1004.3622)"
         id="g12">
        <path
           d="m -24 13 c 0 1.105 -0.672 2 -1.5 2 -0.828 0 -1.5 -0.895 -1.5 -2 0 -1.105 0.672 -2 1.5 -2 0.828 0 1.5 0.895 1.5 2 z"
           transform="matrix(15.333333,0,0,11.5,414.99999,878.8622)"
           fill="#1890d0"
           id="path14" />
      </g>
    </clipPath>
    <clipPath
       id="clipPath-953422258">
      <g
         transform="translate(0,-1004.3622)"
         id="g17">
        <path
           d="m -24 13 c 0 1.105 -0.672 2 -1.5 2 -0.828 0 -1.5 -0.895 -1.5 -2 0 -1.105 0.672 -2 1.5 -2 0.828 0 1.5 0.895 1.5 2 z"
           transform="matrix(15.333333,0,0,11.5,414.99999,878.8622)"
           fill="#1890d0"
           id="path19" />
      </g>
    </clipPath>
    <linearGradient
       id="linearGradient3764-5"
       x1="1"
       x2="47"
       gradientUnits="userSpaceOnUse"
       gradientTransform="matrix(0,-1,1,0,-1.5e-6,47.999998)">
      <stop
         stop-color="#b5945b"
         stop-opacity="1"
         id="stop7-5" />
      <stop
         offset="1"
         stop-color="#bb9e69"
         stop-opacity="1"
         id="stop9-9" />
    </linearGradient>
    <clipPath
       id="clipPath-899834956">
      <g
         transform="translate(0,-1004.3622)"
         id="g12-5">
        <path
           d="m -24 13 c 0 1.105 -0.672 2 -1.5 2 -0.828 0 -1.5 -0.895 -1.5 -2 0 -1.105 0.672 -2 1.5 -2 0.828 0 1.5 0.895 1.5 2 z"
           transform="matrix(15.333333,0,0,11.5,414.99999,878.8622)"
           fill="#1890d0"
           id="path14-5" />
      </g>
    </clipPath>
    <clipPath
       id="clipPath-909443126">
      <g
         transform="translate(0,-1004.3622)"
         id="g17-9">
        <path
           d="m -24 13 c 0 1.105 -0.672 2 -1.5 2 -0.828 0 -1.5 -0.895 -1.5 -2 0 -1.105 0.672 -2 1.5 -2 0.828 0 1.5 0.895 1.5 2 z"
           transform="matrix(15.333333,0,0,11.5,414.99999,878.8622)"
           fill="#1890d0"
           id="path19-5" />
      </g>
    </clipPath>
    <clipPath
       id="clipPath-909443126-7">
      <g
         transform="translate(0,-1004.3622)"
         id="g17-2">
        <path
           style="fill:#1890d0"
           inkscape:connector-curvature="0"
           d="m -24,13 c 0,1.105 -0.672,2 -1.5,2 -0.828,0 -1.5,-0.895 -1.5,-2 0,-1.105 0.672,-2 1.5,-2 0.828,0 1.5,0.895 1.5,2 z"
           transform="matrix(15.333333,0,0,11.5,414.99999,878.8622)"
           id="path19-3" />
      </g>
    </clipPath>
    <linearGradient
       id="linearGradient3759">
      <stop
         id="stop3761"
         offset="0"
         style="stop-color:#a75e15;stop-opacity:1;" />
      <stop
         id="stop3763"
         offset="1"
         style="stop-color:#ffffff;stop-opacity:0;" />
    </linearGradient>
    <linearGradient
       id="linearGradient3777">
      <stop
         id="stop3779"
         offset="0"
         style="stop-color:#e0dd00;stop-opacity:1;" />
      <stop
         id="stop3781"
         offset="1"
         style="stop-color:#000000;stop-opacity:0;" />
    </linearGradient>
  </defs>
  <g
     id="g33" />
  <g
     id="g3089">
    <g
       inkscape:label="shadows"
       id="layer2">
      <rect
         ry="13.03658"
         rx="13.03658"
         y="1"
         x="1"
         height="46"
         width="46"
         id="rect3007"
         style="opacity:0.1;fill:#000000;fill-opacity:1;fill-rule:nonzero;stroke:none" />
      <rect
         style="opacity:0.1;fill:#000000;fill-opacity:1;fill-rule:nonzero;stroke:none"
         id="rect3011"
         width="47"
         height="47"
         x="0.5"
         y="0.5"
         rx="13.319984"
         ry="13.319984" />
      <rect
         style="opacity:0.1;fill:#000000;fill-opacity:1;fill-rule:nonzero;stroke:none"
         id="rect3013"
         width="46.5"
         height="46.5"
         x="0.75"
         y="0.75"
         rx="13.178282"
         ry="13.178282" />
    </g>
    <g
       style="display:inline"
       inkscape:label="background-color"
       id="layer1">
      <rect
         transform="matrix(0,-1,1,0,0,0)"
         ry="12.753176"
         rx="12.753176"
         y="1.5"
         x="-46.5"
         height="45"
         width="45"
         id="rect2988"
         style="fill:#444444;fill-opacity:1;fill-rule:nonzero;stroke:none" />
    </g>
  </g>
  <g
     id="g3865"
     transform="translate(0.002,-0.699)">
    <g
       id="g3867"
       clip-path="url(#clipPath-953422258)">
      <!-- color: #4e4e4e -->
      <g
         id="g3869">
        <path
           id="path3871"
           d="m 27.656,16.16 c -4.602,1.227 -8.141,5.34 -12.219,8.188 1.738,-0.711 3.922,-1.828 4.813,-1.906 l -2.875,3.188 2.219,-0.969 c -0.992,2.949 -2.168,5.703 -5.03,6.781 l 1.5,2.313 c 0,0 7.547,4.75 7.75,4.75 0.203,0 2.316,-1.875 2.316,-1.875 l 7.75,-5.688 c -3.859,0.105 -7.289,-0.348 -7.656,-4.781 -0.094,-0.531 0.043,-4.219 5.344,-5.906 -0.535,-0.367 -2.328,-0.121 -3.594,-0.125 -0.055,-0.5 0.254,-2.664 4.344,-2.906 -1.027,-1.055 -2.32,-1.137 -4.156,-0.563 -0.195,-0.188 -0.309,-0.168 -0.5,-0.5 m -1.063,1.594 c 0.262,0.113 0.297,0.285 0.344,0.469 -0.457,0.094 -1.102,0.313 -1.281,0.063 -0.082,-0.086 0.477,-0.402 0.941,-0.523 m 0,0"
           inkscape:connector-curvature="0"
           style="fill:#fab268;fill-opacity:1;fill-rule:nonzero;stroke:none" />
        <path
           id="path3873"
           d="M 17.688,10.406 C 12.559,12.785 9,17.972 9,24 c 0,8.281 6.715,14.996 15,14.996 8.281,0 14.996,-6.715 14.996,-14.996 0,-5.953 -3.473,-11.09 -8.5,-13.5 L 30.34,10.656 C 34.309,12.883 37,17.121 37,21.996 37,28.543 32.168,33.934 25.875,34.84 L 24,38 22.125,34.84 C 15.832,33.934 11,28.543 11,21.996 11,17.07 13.746,12.797 17.781,10.59 17.754,10.531 17.715,10.465 17.687,10.402 m 0,0.004"
           inkscape:connector-curvature="0"
           style="fill:#7799b9;fill-opacity:1;fill-rule:nonzero;stroke:none" />
      </g>
    </g>
  </g>
</svg>
